icons/plexis/48/addressbook.svg

<svg viewBox="0 0 48 48" xmlns="http://www.w3.org/2000/svg" xmlns:xlink="http://www.w3.org/1999/xlink">
  <linearGradient id="a" gradientTransform="matrix(0 -1 1 0 -.0000015 47.999998)" gradientUnits="userSpaceOnUse" x1="1" x2="47">
    <stop offset="0" stop-color="#ad897f"/>
    <stop offset="1" stop-color="#b5948b"/>
  </linearGradient>
  <path d="m47 24c0 22.703-.297 23-23 23-22.703 0-23-.297-23-23 0-22.703.297-23 23-23 22.703 0 23 .297 23 23z" fill="url(#a)"/>
  <g transform="matrix(3.543307 0 0 3.543307 -.00118111 -.00000012)">
    <path d="m18.543 13c-1.777 0-3.226 1.299-3.488 3h-1.523c-.294 0-.531.237-.531.531v.938c0 .294.237.531.531.531h1.469v2h-1.469c-.294 0-.531.237-.531.531v.938c0 .294.237.531.531.531h1.469v2h-1.469c-.294 0-.531.237-.531.531v.938c0 .294.237.531.531.531h1.469v2h-1.469c-.294 0-.531.237-.531.531v.938c0 .294.237.531.531.531h1.469v2h-1.469c-.294 0-.531.237-.531.531v.938c0 .294.237.531.531.531h1.523c.262 1.701 1.712 3 3.488 3h12.914c1.777 0 3.226-1.299 3.488-3h1.168c.491 0 .887-.396.887-.887v-2.227c0-.491-.396-.887-.887-.887h-1.113v-3h1.113c.491 0 .887-.396.887-.887v-2.227c0-.491-.396-.887-.887-.887h-1.113v-3h1.113c.491 0 .887-.396.887-.887v-2.227c0-.491-.396-.887-.887-.887h-1.168c-.262-1.701-1.712-3-3.488-3h-12.914z" opacity=".1" transform="scale(.28222223)"/>
    <rect fill="#45485b" height="1.129" rx=".25" width=".847" x="9.313" y="8.184"/>
    <rect fill="#e44933" height="1.129" rx=".25" width=".847" x="9.313" y="6.209"/>
    <rect fill="#ffca08" height="1.129" rx=".25" width=".847" x="9.313" y="4.233"/>
    <rect fill="#f9f9f9" height="6.773" rx="1" width="5.644" x="3.951" y="3.387"/>
    <path d="m4.948 3.387c-.554 0-.997.443-.997.997v4.78c0 .554.443.997.997.997h.132v-6.773z" fill="#b1c9c9"/>
    <rect fill="#81584a" height=".564" rx=".15" width="1.129" x="3.387" y="5.362"/>
    <rect fill="#81584a" height=".564" rx=".15" width="1.129" x="3.387" y="6.491"/>
    <rect fill="#81584a" height=".564" rx=".15" width="1.129" x="3.387" y="7.62"/>
    <rect fill="#81584a" height=".564" rx=".15" width="1.129" x="3.387" y="8.749"/>
    <rect fill="#81584a" height=".564" rx=".15" width="1.129" x="3.387" y="4.233"/>
    <path d="m6.819 8.746c-.412-.017-.691-.048-.906-.102-.247-.062-.423-.155-.495-.263-.05-.075-.059-.113-.055-.254.003-.119.003-.12.031-.178.069-.143.198-.265.435-.412.117-.073.359-.191.531-.259.171-.068.21-.095.247-.175.019-.04.023-.059.023-.108 0-.094-.017-.142-.075-.206-.244-.273-.401-.678-.401-1.037 0-.397.172-.707.474-.856.128-.063.24-.09.394-.096.423-.016.772.218.891.6.063.201.064.47.004.707-.059.23-.191.492-.327.647-.071.081-.078.093-.093.162-.017.083-.013.166.012.219.028.059.064.085.171.123.559.2.953.465 1.051.706.017.041.018.057.018.183 0 .134 0 .139-.022.184-.09.192-.374.315-.871.378-.219.028-.782.049-1.037.039z" fill="#6a6e84"/>
  </g>
</svg>

<svg xmlns="http://www.w3.org/2000/svg" viewBox="0 0 48 48">
 <defs>
  <linearGradient id="linearGradient3764" x1="1" x2="47" gradientUnits="userSpaceOnUse" gradientTransform="matrix(0,-1,1,0,-1.5e-6,47.999998)">
   <stop style="stop-color:#ad897f;stop-opacity:1"/>
   <stop offset="1" style="stop-color:#b5948b;stop-opacity:1"/>
  </linearGradient>
 </defs>
 <g>
  
  
  
 </g>
 <g>
  <path d="m 47,24 C 47,46.703 46.703,47 24,47 1.297,47 1,46.703 1,24 1,1.297 1.297,1 24,1 46.703,1 47,1.297 47,24 z" style="fill:url(#linearGradient3764);fill-opacity:1"/>
 </g>
 <g>
  
 </g>
 <g transform="matrix(3.543307,0,0,3.543307,-0.00118111,-1.1524056e-7)">
  <g transform="translate(0.2822222,0.28222215)" style="opacity:0.1">
   <path d="m 18.543,13 c -1.777,0 -3.226,1.299 -3.488,3 l -1.523,0 c -0.294,0 -0.531,0.237 -0.531,0.531 l 0,0.938 c 0,0.294 0.237,0.531 0.531,0.531 l 1.469,0 0,2 -1.469,0 c -0.294,0 -0.531,0.237 -0.531,0.531 l 0,0.938 c 0,0.294 0.237,0.531 0.531,0.531 l 1.469,0 0,2 -1.469,0 c -0.294,0 -0.531,0.237 -0.531,0.531 l 0,0.938 c 0,0.294 0.237,0.531 0.531,0.531 l 1.469,0 0,2 -1.469,0 c -0.294,0 -0.531,0.237 -0.531,0.531 l 0,0.938 c 0,0.294 0.237,0.531 0.531,0.531 l 1.469,0 0,2 -1.469,0 c -0.294,0 -0.531,0.237 -0.531,0.531 l 0,0.938 c 0,0.294 0.237,0.531 0.531,0.531 l 1.523,0 c 0.262,1.701 1.712,3 3.488,3 l 12.914,0 c 1.777,0 3.226,-1.299 3.488,-3 l 1.168,0 C 36.604,34 37,33.604 37,33.113 l 0,-2.227 c 0,-0.491 -0.396,-0.887 -0.887,-0.887 l -1.113,0 0,-3 1.113,0 c 0.491,0 0.887,-0.396 0.887,-0.887 l 0,-2.227 c 0,-0.491 -0.396,-0.887 -0.887,-0.887 l -1.113,0 0,-3 1.113,0 c 0.491,0 0.887,-0.396 0.887,-0.887 l 0,-2.227 c 0,-0.491 -0.396,-0.887 -0.887,-0.887 l -1.168,0 c -0.262,-1.701 -1.712,-3 -3.488,-3 l -12.914,0 z" transform="matrix(0.28222223,0,0,0.28222223,-0.2822222,-0.28222215)" style="fill:#000;fill-opacity:1;stroke:none"/>
  </g>
  <g>
   <rect rx="0.25" y="8.184" x="9.313" height="1.129" width="0.847" style="fill:#45485b;fill-opacity:1;stroke:none"/>
   <rect width="0.847" height="1.129" x="9.313" y="6.209" rx="0.25" style="fill:#e44933;fill-opacity:1;stroke:none"/>
   <rect rx="0.25" y="4.233" x="9.313" height="1.129" width="0.847" style="fill:#ffca08;fill-opacity:1;stroke:none"/>
   <rect rx="1" y="3.387" x="3.951" height="6.773" width="5.644" style="fill:#f9f9f9;fill-opacity:1;stroke:none"/>
   <path d="m 4.948 3.387 c -0.554 0 -0.997 0.443 -0.997 0.997 l 0 4.78 c 0 0.554 0.443 0.997 0.997 0.997 l 0.132 0 0 -6.773 z" style="fill:#b1c9c9;fill-opacity:1;stroke:none"/>
   <rect width="1.129" height="0.564" x="3.387" y="5.362" rx="0.15" style="fill:#81584a;fill-opacity:1;stroke:none"/>
   <rect rx="0.15" y="6.491" x="3.387" height="0.564" width="1.129" style="fill:#81584a;fill-opacity:1;stroke:none"/>
   <rect width="1.129" height="0.564" x="3.387" y="7.62" rx="0.15" style="fill:#81584a;fill-opacity:1;stroke:none"/>
   <rect rx="0.15" y="8.749" x="3.387" height="0.564" width="1.129" style="fill:#81584a;fill-opacity:1;stroke:none"/>
   <rect rx="0.15" y="4.233" x="3.387" height="0.564" width="1.129" style="fill:#81584a;fill-opacity:1;stroke:none"/>
   <path d="M 6.819,8.746 C 6.407,8.729 6.128,8.698 5.913,8.644 5.666,8.582 5.49,8.489 5.418,8.381 5.368,8.306 5.359,8.268 5.363,8.127 5.366,8.008 5.366,8.007 5.394,7.949 5.463,7.806 5.592,7.684 5.829,7.537 5.946,7.464 6.188,7.346 6.36,7.278 6.531,7.21 6.57,7.183 6.607,7.103 6.626,7.063 6.63,7.044 6.63,6.995 6.63,6.901 6.613,6.853 6.555,6.789 6.311,6.516 6.154,6.111 6.154,5.752 6.154,5.355 6.326,5.045 6.628,4.896 6.756,4.833 6.868,4.806 7.022,4.8 7.445,4.784 7.794,5.018 7.913,5.4 7.976,5.601 7.977,5.87 7.917,6.107 7.858,6.337 7.726,6.599 7.59,6.754 7.519,6.835 7.512,6.847 7.497,6.916 7.48,6.999 7.484,7.082 7.509,7.135 7.537,7.194 7.573,7.22 7.68,7.258 c 0.559,0.2 0.953,0.465 1.051,0.706 0.017,0.041 0.018,0.057 0.018,0.183 0,0.134 0,0.139 -0.022,0.184 C 8.637,8.523 8.353,8.646 7.856,8.709 7.637,8.737 7.074,8.758 6.819,8.748 Z" style="fill:#6a6e84;fill-opacity:1"/>
  </g>
 </g>
</svg>
